**kern	**kern
*staff2	*staff1
*clefG2	*clefG2
*k[]	*k[]
*M3/4	*M3/4
*C:	*C:
=59	=59
*^	*
2g	2.c	(8eeL
.	.	8ddJ
.	.	8ffL
.	.	8eeJ
4e	.	8ddL
.	.	8ccJ)
=60	=60	=60
2a	2.c	(8ggL
.	.	8ffJ
.	.	8eeL
.	.	8ffJ
4g	.	8dd#L
.	.	8eeJ)
=61	=61	=61
2g	[2.c	(8ffL
.	.	8eeJ
.	.	8dd#L
.	.	8eeJ
4f	.	8cc#L
.	.	8ddJ
=62	=62	=62
4e	4c]	8bL
.	.	8ccJ
4r	4r	8ddL
.	.	8ccJ
4r	4r	8bL
.	.	8ccJ
*clefF4	*clefF4	*
*v	*v	*
=63	=63
4r	8cc#L
.	8ddJ
(4B	8eeL
.	8ddJ
4c)	8ffL
.	8eeJ
=64	=64
*^	*
(4A	2.F	8ggL
.	.	8ffJ
4d	.	8gg#L
.	.	8aaJ
[4f)	.	8ffL
.	.	8ddJ
=65	=65	=65
4f]	2.G	8ccL
.	.	8bJ
(8fL	.	8aL
8eJ	.	8gJ
8fL	.	8aL
8dJ)	.	8bJ)
=66	=66	=66
4e	4c	4cc
4r	4r	4r
*v	*v	*
*-	*-
